P3
80 80
255
0 0 0  0 0 0  0 0 0  0 0 0  0 0 0  0 0 0
0 0 0  0 0 0  0 0 0  0 0 0  0 0 0  0 0 0
0 0 0  0 0 0  0 0 0  0 0 0  0 0 0  0 0 0
0 0 0  0 0 0  0 0 0  0 0 0  0 0 0  0 0 0
0 0 0  0 0 0  0 0 0  0 0 0  0 0 0  0 0 0
0 0 0  0 0 0  0 0 0  3 3 2  54 52 46  121 119 113
170 170 170  208 208 208  234 234 234  240 240 240  240 240 240  240 240 240
225 225 224  191 191 191  138 138 138  88 88 88  21 20 20  0 0 0
0 0 0  0 0 0  0 0 0  0 0 0  0 0 0  0 0 0
0 0 0  0 0 0  0 0 0  0 0 0  0 0 0  0 0 0
0 0 0  0 0 0  0 0 0  0 0 0  0 0 0  0 0 0
0 0 0  0 0 0  0 0 0  0 0 0  0 0 0  0 0 0
0 0 0  0 0 0  0 0 0  0 0 0  0 0 0  0 0 0
0 0 0  0 0 0
0 0 0  0 0 0  0 0 0  0 0 0  0 0 0  0 0 0
0 0 0  0 0 0  0 0 0  0 0 0  0 0 0  0 0 0
0 0 0  0 0 0  0 0 0  0 0 0  0 0 0  0 0 0
0 0 0  0 0 0  0 0 0  0 0 0  0 0 0  0 0 0
0 0 0  0 0 0  0 0 0  0 0 0  0 0 0  0 0 0
0 0 0  21 20 20  111 111 109  212 212 212  240 240 240  240 240 240
240 240 240  240 240 240  240 240 240  240 240 240  240 240 240  240 240 240
240 240 240  240 240 240  240 240 240  240 240 240  237 237 237  170 170 170
67 67 67  3 3 2  0 0 0  0 0 0  0 0 0  0 0 0
0 0 0  0 0 0  0 0 0  0 0 0  0 0 0  0 0 0
0 0 0  0 0 0  0 0 0  0 0 0  0 0 0  0 0 0
0 0 0  0 0 0  0 0 0  0 0 0  0 0 0  0 0 0
0 0 0  0 0 0  0 0 0  0 0 0  0 0 0  0 0 0
0 0 0  0 0 0
0 0 0  0 0 0  0 0 0  0 0 0  0 0 0  0 0 0
0 0 0  0 0 0  0 0 0  0 0 0  0 0 0  0 0 0
0 0 0  0 0 0  0 0 0  0 0 0  0 0 0  0 0 0
0 0 0  0 0 0  0 0 0  0 0 0  0 0 0  0 0 0
0 0 0  0 0 0  0 0 0  0 0 0  0 0 0  7 7 7
111 111 109  220 220 220  231 231 231  231 231 231  231 231 231  231 231 231
231 231 231  231 231 231  231 231 231  231 231 231  231 231 231  231 231 231
231 231 231  231 231 231  231 231 231  231 231 231  231 231 231  231 231 231
231 231 231  187 187 187  54 52 46  0 0 0  0 0 0  0 0 0
0 0 0  0 0 0  0 0 0  0 0 0  0 0 0  0 0 0
0 0 0  0 0 0  0 0 0  0 0 0  0 0 0  0 0 0
0 0 0  0 0 0  0 0 0  0 0 0  0 0 0  0 0 0
0 0 0  0 0 0  0 0 0  0 0 0  0 0 0  0 0 0
0 0 0  0 0 0
0 0 0  0 0 0  0 0 0  0 0 0  0 0 0  0 0 0
0 0 0  0 0 0  0 0 0  0 0 0  0 0 0  0 0 0
0 0 0  0 0 0  0 0 0  0 0 0  0 0 0  0 0 0
0 0 0  0 0 0  0 0 0  0 0 0  0 0 0  0 0 0
0 0 0  0 0 0  0 0 0  0 0 0  40 40 40  187 187 187
223 223 223  223 223 223  223 223 223  223 223 223  223 223 223  223 223 223
223 223 223  223 223 223  223 223 223  223 223 223  223 223 223  223 223 223
223 223 223  223 223 223  223 223 223  223 223 223  223 223 223  223 223 223
223 223 223  223 223 223  220 220 220  121 119 113  4 3 3  0 0 0
0 0 0  0 0 0  0 0 0  0 0 0  0 0 0  0 0 0
0 0 0  0 0 0  0 0 0  0 0 0  0 0 0  0 0 0
0 0 0  0 0 0  0 0 0  0 0 0  0 0 0  0 0 0
0 0 0  0 0 0  0 0 0  0 0 0  0 0 0  0 0 0
0 0 0  0 0 0
0 0 0  0 0 0  0 0 0  0 0 0  0 0 0  0 0 0
0 0 0  0 0 0  0 0 0  0 0 0  0 0 0  0 0 0
0 0 0  0 0 0  0 0 0  0 0 0  0 0 0  0 0 0
0 0 0  0 0 0  0 0 0  0 0 0  0 0 0  0 0 0
0 0 0  0 0 0  0 0 0  61 61 61  204 204 204  214 214 214
214 214 214  214 214 214  214 214 214  214 214 214  214 214 214  214 214 214
214 214 214  214 214 214  214 214 214  214 214 214  214 214 214  214 214 214
214 214 214  214 214 214  214 214 214  214 214 214  214 214 214  214 214 214
214 214 214  214 214 214  214 214 214  214 214 214  161 161 161  13 13 13
0 0 0  0 0 0  0 0 0  0 0 0  0 0 0  0 0 0
0 0 0  0 0 0  0 0 0  0 0 0  0 0 0  0 0 0
0 0 0  0 0 0  0 0 0  0 0 0  0 0 0  0 0 0
0 0 0  0 0 0  0 0 0  0 0 0  0 0 0  0 0 0
0 0 0  0 0 0
0 0 0  0 0 0  0 0 0  0 0 0  0 0 0  0 0 0
0 0 0  0 0 0  0 0 0  0 0 0  0 0 0  0 0 0
0 0 0  0 0 0  0 0 0  0 0 0  0 0 0  0 0 0
0 0 0  0 0 0  0 0 0  0 0 0  0 0 0  0 0 0
0 0 0  0 0 0  61 61 61  202 202 202  205 205 205  205 205 205
205 205 205  205 205 205  205 205 205  205 205 205  205 205 205  205 205 205
205 205 205  205 205 205  205 205 205  205 205 205  205 205 205  205 205 205
205 205 205  205 205 205  205 205 205  205 205 205  205 205 205  205 205 205
205 205 205  205 205 205  205 205 205  205 205 205  205 205 205  161 161 161
7 7 7  0 0 0  0 0 0  0 0 0  0 0 0  0 0 0
0 0 0  0 0 0  0 0 0  0 0 0  0 0 0  0 0 0
0 0 0  0 0 0  0 0 0  0 0 0  0 0 0  0 0 0
0 0 0  0 0 0  0 0 0  0 0 0  0 0 0  0 0 0
0 0 0  0 0 0
0 0 0  0 0 0  0 0 0  0 0 0  0 0 0  0 0 0
0 0 0  0 0 0  0 0 0  0 0 0  0 0 0  0 0 0
0 0 0  0 0 0  0 0 0  0 0 0  0 0 0  0 0 0
0 0 0  0 0 0  0 0 0  0 0 0  0 0 0  0 0 0
0 0 0  31 31 28  188 188 188  196 196 196  196 196 196  196 196 196
196 196 196  196 196 196  196 196 196  196 196 196  196 196 196  196 196 196
196 196 196  196 196 196  196 196 196  196 196 196  196 196 196  196 196 196
196 196 196  196 196 196  196 196 196  196 196 196  196 196 196  196 196 196
196 196 196  196 196 196  196 196 196  196 196 196  196 196 196  196 196 196
138 138 138  1 1 1  0 0 0  0 0 0  0 0 0  0 0 0
0 0 0  0 0 0  0 0 0  0 0 0  0 0 0  0 0 0
0 0 0  0 0 0  0 0 0  0 0 0  0 0 0  0 0 0
0 0 0  0 0 0  0 0 0  0 0 0  0 0 0  0 0 0
0 0 0  0 0 0
0 0 0  0 0 0  0 0 0  0 0 0  0 0 0  0 0 0
0 0 0  0 0 0  0 0 0  0 0 0  0 0 0  0 0 0
0 0 0  0 0 0  0 0 0  0 0 0  0 0 0  0 0 0
0 0 0  0 0 0  0 0 0  0 0 0  0 0 0  0 0 0
4 3 3  153 153 153  188 188 188  188 188 188  188 188 188  188 188 188
188 188 188  188 188 188  188 188 188  188 188 188  188 188 188  188 188 188
188 188 188  188 188 188  188 188 188  188 188 188  188 188 188  188 188 188
188 188 188  188 188 188  188 188 188  188 188 188  188 188 188  188 188 188
188 188 188  188 188 188  188 188 188  188 188 188  188 188 188  188 188 188
187 187 187  70 70 70  0 0 0  0 0 0  0 0 0  0 0 0
0 0 0  0 0 0  0 0 0  0 0 0  0 0 0  0 0 0
0 0 0  0 0 0  0 0 0  0 0 0  0 0 0  0 0 0
0 0 0  0 0 0  0 0 0  0 0 0  0 0 0  0 0 0
0 0 0  0 0 0
0 0 0  0 0 0  0 0 0  0 0 0  0 0 0  0 0 0
0 0 0  0 0 0  0 0 0  0 0 0  0 0 0  0 0 0
0 0 0  0 0 0  0 0 0  0 0 0  0 0 0  0 0 0
0 0 0  0 0 0  0 0 0  0 0 0  0 0 0  0 0 0
70 70 70  179 179 179  179 179 179  179 179 179  179 179 179  179 179 179
179 179 179  179 179 179  179 179 179  179 179 179  179 179 179  179 179 179
179 179 179  179 179 179  179 179 179  179 179 179  179 179 179  179 179 179
179 179 179  179 179 179  179 179 179  179 179 179  179 179 179  179 179 179
179 179 179  179 179 179  179 179 179  179 179 179  179 179 179  179 179 179
179 179 179  161 161 161  7 7 7  0 0 0  0 0 0  0 0 0
0 0 0  0 0 0  0 0 0  0 0 0  0 0 0  0 0 0
0 0 0  0 0 0  0 0 0  0 0 0  0 0 0  0 0 0
0 0 0  0 0 0  0 0 0  0 0 0  0 0 0  0 0 0
0 0 0  0 0 0
0 0 0  0 0 0  0 0 0  0 0 0  0 0 0  0 0 0
0 0 0  0 0 0  0 0 0  0 0 0  0 0 0  0 0 0
0 0 0  0 0 0  0 0 0  0 0 0  0 0 0  0 0 0
0 0 0  0 0 0  0 0 0  0 0 0  0 0 0  1 1 1
153 153 153  170 170 170  170 170 170  170 170 170  153 153 153  111 111 109
84 84 84  73 73 73  76 76 75  91 91 91  138 138 138  170 170 170
170 170 170  170 170 170  170 170 170  170 170 170  170 170 170  170 170 170
170 170 170  170 170 170  170 170 170  170 170 170  170 170 170  170 170 170
170 170 170  170 170 170  170 170 170  170 170 170  170 170 170  170 170 170
170 170 170  170 170 170  73 73 73  0 0 0  0 0 0  0 0 0
0 0 0  0 0 0  0 0 0  0 0 0  0 0 0  0 0 0
0 0 0  0 0 0  0 0 0  0 0 0  0 0 0  0 0 0
0 0 0  0 0 0  0 0 0  0 0 0  0 0 0  0 0 0
0 0 0  0 0 0
0 0 0  0 0 0  0 0 0  0 0 0  0 0 0  0 0 0
0 0 0  0 0 0  0 0 0  0 0 0  0 0 0  0 0 0
0 0 0  0 0 0  0 0 0  0 0 0  0 0 0  0 0 0
0 0 0  0 0 0  0 0 0  0 0 0  0 0 0  40 40 40
161 161 161  161 161 161  138 138 138  67 67 67  67 67 67  121 119 113
161 161 161  161 161 161  161 161 161  138 138 138  91 91 91  54 52 46
111 111 109  161 161 161  161 161 161  161 161 161  161 161 161  161 161 161
161 161 161  161 161 161  161 161 161  161 161 161  161 161 161  161 161 161
161 161 161  161 161 161  161 161 161  161 161 161  161 161 161  161 161 161
161 161 161  161 161 161  138 138 138  0 0 0  0 0 0  0 0 0
0 0 0  0 0 0  0 0 0  0 0 0  0 0 0  0 0 0
0 0 0  0 0 0  0 0 0  0 0 0  0 0 0  0 0 0
0 0 0  0 0 0  0 0 0  0 0 0  0 0 0  0 0 0
0 0 0  0 0 0
0 0 0  0 0 0  0 0 0  0 0 0  0 0 0  0 0 0
0 0 0  0 0 0  0 0 0  0 0 0  0 0 0  0 0 0
0 0 0  0 0 0  0 0 0  0 0 0  0 0 0  0 0 0
0 0 0  0 0 0  0 0 0  0 0 0  0 0 0  84 84 84
153 153 153  103 101 93  54 52 46  121 119 113  121 119 113  103 101 93
81 79 74  73 73 73  76 76 75  91 91 91  121 119 113  138 138 138
84 84 84  61 61 61  138 138 138  153 153 153  153 153 153  153 153 153
153 153 153  153 153 153  153 153 153  153 153 153  153 153 153  153 153 153
153 153 153  153 153 153  153 153 153  153 153 153  153 153 153  153 153 153
153 153 153  153 153 153  153 153 153  13 13 13  0 0 0  0 0 0
0 0 0  0 0 0  0 0 0  0 0 0  0 0 0  0 0 0
0 0 0  0 0 0  0 0 0  0 0 0  0 0 0  0 0 0
0 0 0  0 0 0  0 0 0  0 0 0  0 0 0  0 0 0
0 0 0  0 0 0
0 0 0  0 0 0  0 0 0  0 0 0  0 0 0  0 0 0
0 0 0  0 0 0  0 0 0  0 0 0  0 0 0  0 0 0
0 0 0  0 0 0  0 0 0  0 0 0  0 0 0  0 0 0
0 0 0  0 0 0  0 0 0  0 0 0  0 0 0  111 111 109
84 84 84  61 61 61  84 84 84  40 40 40  13 13 13  67 67 67
138 138 138  187 187 187  189 189 189  153 153 153  84 84 84  48 45 42
73 73 73  84 84 84  48 45 42  138 138 138  138 138 138  138 138 138
138 138 138  138 138 138  138 138 138  138 138 138  103 101 93  76 76 75
70 70 70  73 73 73  91 91 91  121 119 113  138 138 138  138 138 138
138 138 138  138 138 138  138 138 138  40 40 40  0 0 0  0 0 0
0 0 0  0 0 0  0 0 0  0 0 0  0 0 0  0 0 0
0 0 0  0 0 0  0 0 0  0 0 0  0 0 0  0 0 0
0 0 0  0 0 0  0 0 0  0 0 0  0 0 0  0 0 0
0 0 0  0 0 0
0 0 0  0 0 0  0 0 0  0 0 0  0 0 0  0 0 0
0 0 0  0 0 0  0 0 0  0 0 0  0 0 0  0 0 0
0 0 0  0 0 0  0 0 0  0 0 0  0 0 0  0 0 0
0 0 0  0 0 0  0 0 0  0 0 0  0 0 0  76 76 75
31 31 28  40 40 40  3 3 2  31 31 28  161 161 161  238 238 238
240 240 240  240 240 240  240 240 240  240 240 240  240 240 240  179 179 179
54 52 46  29 29 29  48 45 42  40 40 40  138 138 138  138 138 138
138 138 138  110 107 97  48 45 42  54 52 46  91 91 91  121 119 113
138 138 138  138 138 138  121 119 113  84 84 84  61 61 61  91 91 91
138 138 138  138 138 138  138 138 138  54 52 46  0 0 0  0 0 0
0 0 0  0 0 0  0 0 0  0 0 0  0 0 0  0 0 0
0 0 0  0 0 0  0 0 0  0 0 0  0 0 0  0 0 0
0 0 0  0 0 0  0 0 0  0 0 0  0 0 0  0 0 0
0 0 0  0 0 0
0 0 0  0 0 0  0 0 0  0 0 0  0 0 0  0 0 0
0 0 0  0 0 0  0 0 0  0 0 0  0 0 0  0 0 0
0 0 0  0 0 0  0 0 0  0 0 0  0 0 0  0 0 0
0 0 0  0 0 0  0 0 0  0 0 0  0 0 0  10 9 8
13 13 13  0 0 0  31 31 28  153 153 153  216 216 216  238 238 238
240 240 240  240 240 240  240 240 240  240 240 240  240 240 240  240 240 240
207 207 207  61 61 61  7 7 7  16 16 14  73 73 73  121 119 113
54 52 46  54 52 46  110 107 97  110 107 97  91 91 91  84 84 84
84 84 84  84 84 84  103 101 93  111 111 109  111 111 109  84 84 84
54 52 46  111 111 109  121 119 113  54 52 46  0 0 0  0 0 0
0 0 0  0 0 0  0 0 0  0 0 0  0 0 0  0 0 0
0 0 0  0 0 0  0 0 0  0 0 0  0 0 0  0 0 0
0 0 0  0 0 0  0 0 0  0 0 0  0 0 0  0 0 0
0 0 0  0 0 0
0 0 0  0 0 0  0 0 0  0 0 0  0 0 0  0 0 0
0 0 0  0 0 0  0 0 0  0 0 0  0 0 0  0 0 0
0 0 0  0 0 0  0 0 0  0 0 0  0 0 0  0 0 0
0 0 0  0 0 0  0 0 0  0 0 0  0 0 0  4 3 3
0 0 0  10 9 8  138 138 138  170 170 170  187 187 187  199 199 199
222 222 222  240 240 240  240 240 240  240 240 240  240 240 240  240 240 240
236 236 236  189 189 189  24 23 19  3 3 2  13 13 13  31 31 28
40 40 40  31 31 28  13 13 13  13 13 13  48 45 42  67 67 67
70 70 70  61 61 61  29 29 29  5 5 5  21 20 20  40 40 40
54 52 46  31 31 28  103 101 93  48 45 42  0 0 0  0 0 0
0 0 0  0 0 0  0 0 0  0 0 0  0 0 0  0 0 0
0 0 0  0 0 0  0 0 0  0 0 0  0 0 0  0 0 0
0 0 0  0 0 0  0 0 0  0 0 0  0 0 0  0 0 0
0 0 0  0 0 0
0 0 0  0 0 0  0 0 0  0 0 0  0 0 0  0 0 0
0 0 0  0 0 0  0 0 0  0 0 0  0 0 0  0 0 0
0 0 0  0 0 0  0 0 0  0 0 0  0 0 0  0 0 0
0 0 0  0 0 0  0 0 0  0 0 0  0 0 0  0 0 0
0 0 0  81 79 74  170 170 170  179 179 179  199 199 199  212 212 212
219 219 219  223 223 223  237 237 237  240 240 240  240 240 240  239 239 239
234 234 234  226 226 226  121 119 113  1 1 1  0 0 0  4 3 3
0 0 0  21 20 20  103 101 93  153 153 153  179 179 179  220 220 220
231 231 231  220 220 220  197 197 197  138 138 138  54 52 46  1 1 1
3 3 2  5 5 5  13 13 13  21 20 20  0 0 0  0 0 0
0 0 0  0 0 0  0 0 0  0 0 0  0 0 0  0 0 0
0 0 0  0 0 0  0 0 0  0 0 0  0 0 0  0 0 0
0 0 0  0 0 0  0 0 0  0 0 0  0 0 0  0 0 0
0 0 0  0 0 0
0 0 0  0 0 0  0 0 0  0 0 0  0 0 0  0 0 0
0 0 0  0 0 0  0 0 0  0 0 0  0 0 0  0 0 0
0 0 0  0 0 0  0 0 0  0 0 0  0 0 0  0 0 0
0 0 0  0 0 0  0 0 0  0 0 0  0 0 0  0 0 0
10 9 8  153 153 153  187 187 187  196 196 196  210 210 210  219 219 219
222 222 222  222 222 222  222 222 222  234 234 234  240 240 240  239 239 239
233 233 233  225 225 224  196 196 196  29 29 29  0 0 0  0 0 0
54 52 46  138 138 138  161 161 161  170 170 170  179 179 179  190 190 190
216 216 216  236 236 236  234 234 234  231 231 231  199 199 199  103 101 93
5 5 5  0 0 0  0 0 0  0 0 0  0 0 0  0 0 0
0 0 0  0 0 0  0 0 0  0 0 0  0 0 0  0 0 0
0 0 0  0 0 0  0 0 0  0 0 0  0 0 0  0 0 0
0 0 0  0 0 0  0 0 0  0 0 0  0 0 0  0 0 0
0 0 0  0 0 0
0 0 0  0 0 0  0 0 0  0 0 0  0 0 0  0 0 0
0 0 0  0 0 0  0 0 0  0 0 0  0 0 0  0 0 0
0 0 0  0 0 0  0 0 0  0 0 0  0 0 0  0 0 0
0 0 0  0 0 0  0 0 0  0 0 0  0 0 0  0 0 0
54 52 46  170 170 170  196 196 196  202 202 202  215 215 215  220 220 220
220 220 220  220 220 220  220 220 220  220 220 220  234 234 234  237 237 237
231 231 231  223 223 223  210 210 210  88 88 88  0 0 0  40 40 40
138 138 138  170 170 170  179 179 179  196 196 196  203 203 203  207 207 207
208 208 208  216 216 216  234 234 234  231 231 231  225 225 224  204 204 204
103 101 93  1 1 1  0 0 0  0 0 0  0 0 0  0 0 0
0 0 0  0 0 0  0 0 0  0 0 0  0 0 0  0 0 0
0 0 0  0 0 0  0 0 0  0 0 0  0 0 0  0 0 0
0 0 0  0 0 0  0 0 0  0 0 0  0 0 0  0 0 0
0 0 0  0 0 0
0 0 0  0 0 0  0 0 0  0 0 0  0 0 0  0 0 0
0 0 0  0 0 0  0 0 0  0 0 0  0 0 0  0 0 0
0 0 0  0 0 0  0 0 0  0 0 0  0 0 0  0 0 0
0 0 0  0 0 0  0 0 0  0 0 0  0 0 0  0 0 0
91 91 91  179 179 179  202 202 202  207 207 207  216 216 216  219 219 219
219 219 219  219 219 219  219 219 219  219 219 219  222 222 222  234 234 234
161 161 161  170 170 170  170 170 170  138 138 138  7 7 7  121 119 113
138 138 138  179 179 179  199 199 199  209 209 209  215 215 215  218 218 218
219 219 219  216 216 216  222 222 222  231 231 231  224 224 224  215 215 215
179 179 179  48 45 42  0 0 0  0 0 0  0 0 0  0 0 0
0 0 0  0 0 0  0 0 0  0 0 0  0 0 0  0 0 0
0 0 0  0 0 0  0 0 0  0 0 0  0 0 0  0 0 0
0 0 0  0 0 0  0 0 0  0 0 0  0 0 0  0 0 0
0 0 0  0 0 0
0 0 0  0 0 0  0 0 0  0 0 0  0 0 0  0 0 0
0 0 0  0 0 0  0 0 0  0 0 0  0 0 0  0 0 0
0 0 0  0 0 0  0 0 0  0 0 0  0 0 0  0 0 0
0 0 0  0 0 0  0 0 0  0 0 0  0 0 0  0 0 0
121 119 113  187 187 187  206 206 206  210 210 210  216 216 216  218 218 218
218 218 218  218 218 218  218 218 218  218 218 218  218 218 218  170 170 170
7 7 7  179 179 179  179 179 179  138 138 138  54 52 46  67 67 67
170 170 170  161 161 161  179 179 179  216 216 216  219 219 219  220 220 220
220 220 220  220 220 220  218 218 218  226 226 226  223 223 223  212 212 212
198 198 198  111 111 109  0 0 0  0 0 0  0 0 0  0 0 0
0 0 0  0 0 0  0 0 0  0 0 0  0 0 0  0 0 0
0 0 0  0 0 0  0 0 0  0 0 0  0 0 0  0 0 0
0 0 0  0 0 0  0 0 0  0 0 0  0 0 0  0 0 0
0 0 0  0 0 0
0 0 0  0 0 0  0 0 0  0 0 0  0 0 0  0 0 0
0 0 0  0 0 0  0 0 0  0 0 0  0 0 0  0 0 0
0 0 0  0 0 0  0 0 0  0 0 0  0 0 0  0 0 0
0 0 0  0 0 0  0 0 0  0 0 0  0 0 0  0 0 0
138 138 138  189 189 189  208 208 208  214 214 214  216 216 216  216 216 216
216 216 216  216 216 216  216 216 216  216 216 216  216 216 216  91 91 91
0 0 0  70 70 70  103 101 93  88 88 88  76 76 75  10 9 8
61 61 61  170 170 170  121 119 113  216 216 216  218 218 218  218 218 218
218 218 218  218 218 218  218 218 218  219 219 219  220 220 220  209 209 209
192 192 192  153 153 153  7 7 7  0 0 0  0 0 0  0 0 0
0 0 0  0 0 0  0 0 0  0 0 0  0 0 0  0 0 0
0 0 0  0 0 0  0 0 0  0 0 0  0 0 0  0 0 0
0 0 0  0 0 0  0 0 0  0 0 0  0 0 0  0 0 0
0 0 0  0 0 0
0 0 0  0 0 0  0 0 0  0 0 0  0 0 0  0 0 0
0 0 0  0 0 0  0 0 0  0 0 0  0 0 0  0 0 0
0 0 0  0 0 0  0 0 0  0 0 0  0 0 0  0 0 0
0 0 0  0 0 0  0 0 0  0 0 0  0 0 0  0 0 0
138 138 138  189 189 189  208 208 208  216 216 216  215 215 215  215 215 215
215 215 215  215 215 215  215 215 215  215 215 215  215 215 215  67 67 67
0 0 0  1 1 1  0 0 0  54 52 46  67 67 67  13 13 13
4 3 3  13 13 13  24 23 19  215 215 215  216 216 216  216 216 216
216 216 216  216 216 216  216 216 216  215 215 215  215 215 215  202 202 202
187 187 187  153 153 153  21 20 20  0 0 0  0 0 0  0 0 0
0 0 0  0 0 0  0 0 0  0 0 0  0 0 0  0 0 0
0 0 0  0 0 0  0 0 0  0 0 0  0 0 0  0 0 0
0 0 0  0 0 0  0 0 0  0 0 0  0 0 0  0 0 0
0 0 0  0 0 0
0 0 0  0 0 0  0 0 0  0 0 0  0 0 0  0 0 0
0 0 0  0 0 0  0 0 0  0 0 0  0 0 0  0 0 0
0 0 0  0 0 0  0 0 0  0 0 0  0 0 0  0 0 0
0 0 0  0 0 0  0 0 0  0 0 0  0 0 0  0 0 0
121 119 113  187 187 187  206 206 206  216 216 216  214 214 214  214 214 214
214 214 214  214 214 214  214 214 214  214 214 214  214 214 214  88 88 88
7 7 7  0 0 0  0 0 0  54 52 46  54 52 46  29 29 29
0 0 0  0 0 0  24 23 19  214 214 214  214 214 214  214 214 214
214 214 214  214 214 214  214 214 214  212 212 212  206 206 206  192 192 192
170 170 170  138 138 138  13 13 13  0 0 0  0 0 0  0 0 0
0 0 0  0 0 0  0 0 0  0 0 0  0 0 0  0 0 0
0 0 0  0 0 0  0 0 0  0 0 0  0 0 0  0 0 0
0 0 0  0 0 0  0 0 0  0 0 0  0 0 0  0 0 0
0 0 0  0 0 0
0 0 0  0 0 0  0 0 0  0 0 0  0 0 0  0 0 0
0 0 0  0 0 0  0 0 0  0 0 0  0 0 0  0 0 0
0 0 0  0 0 0  0 0 0  0 0 0  0 0 0  0 0 0
0 0 0  0 0 0  0 0 0  0 0 0  0 0 0  0 0 0
91 91 91  179 179 179  202 202 202  215 215 215  216 216 216  212 212 212
212 212 212  212 212 212  212 212 212  212 212 212  212 212 212  121 119 113
48 45 42  0 0 0  0 0 0  65 64 61  40 40 40  61 61 61
7 7 7  0 0 0  67 67 67  210 210 210  212 212 212  212 212 212
212 212 212  212 212 212  212 212 212  207 207 207  196 196 196  179 179 179
161 161 161  121 119 113  0 0 0  0 0 0  0 0 0  0 0 0
0 0 0  0 0 0  0 0 0  0 0 0  0 0 0  0 0 0
0 0 0  0 0 0  0 0 0  0 0 0  0 0 0  0 0 0
0 0 0  0 0 0  0 0 0  0 0 0  0 0 0  0 0 0
0 0 0  0 0 0
0 0 0  0 0 0  0 0 0  0 0 0  0 0 0  0 0 0
0 0 0  0 0 0  0 0 0  0 0 0  0 0 0  0 0 0
0 0 0  0 0 0  0 0 0  0 0 0  0 0 0  0 0 0
0 0 0  0 0 0  0 0 0  0 0 0  0 0 0  0 0 0
54 52 46  179 179 179  197 197 197  212 212 212  219 219 219  212 212 212
210 210 210  210 210 210  210 210 210  210 210 210  210 210 210  187 187 187
81 79 74  65 64 61  40 40 40  76 76 75  16 16 14  76 76 75
73 73 73  48 45 42  161 161 161  202 202 202  207 207 207  208 208 208
209 209 209  208 208 208  204 204 204  197 197 197  187 187 187  170 170 170
153 153 153  67 67 67  0 0 0  0 0 0  0 0 0  0 0 0
0 0 0  0 0 0  0 0 0  0 0 0  0 0 0  0 0 0
0 0 0  0 0 0  0 0 0  0 0 0  0 0 0  0 0 0
0 0 0  0 0 0  0 0 0  0 0 0  0 0 0  0 0 0
0 0 0  0 0 0
0 0 0  0 0 0  0 0 0  0 0 0  0 0 0  0 0 0
0 0 0  0 0 0  0 0 0  0 0 0  0 0 0  0 0 0
0 0 0  0 0 0  0 0 0  0 0 0  0 0 0  0 0 0
0 0 0  0 0 0  0 0 0  0 0 0  0 0 0  0 0 0
13 13 13  153 153 153  191 191 191  206 206 206  216 216 216  219 219 219
210 210 210  209 209 209  209 209 209  209 209 209  207 207 207  199 199 199
161 161 161  111 111 109  143 134 110  61 57 46  40 34 24  81 79 74
138 138 138  170 170 170  190 190 190  196 196 196  198 198 198  199 199 199
199 199 199  198 198 198  196 196 196  189 189 189  179 179 179  170 170 170
121 119 113  7 7 7  0 0 0  0 0 0  0 0 0  0 0 0
0 0 0  0 0 0  0 0 0  0 0 0  0 0 0  0 0 0
0 0 0  0 0 0  0 0 0  0 0 0  0 0 0  0 0 0
0 0 0  0 0 0  0 0 0  0 0 0  0 0 0  0 0 0
0 0 0  0 0 0
0 0 0  0 0 0  0 0 0  0 0 0  0 0 0  0 0 0
0 0 0  0 0 0  0 0 0  0 0 0  0 0 0  0 0 0
0 0 0  0 0 0  0 0 0  0 0 0  0 0 0  0 0 0
0 0 0  0 0 0  0 0 0  0 0 0  0 0 0  0 0 0
0 0 0  88 88 88  179 179 179  198 198 198  209 209 209  216 216 216
216 216 216  207 207 207  206 206 206  204 204 204  198 198 198  191 182 141
189 167 72  213 190 54  238 210 89  226 214 124  226 214 124  224 208 102
223 202 70  199 176 57  191 182 141  189 189 189  196 196 196  198 198 198
198 198 198  196 196 196  192 192 192  187 187 187  170 170 170  121 119 113
21 20 20  0 0 0  0 0 0  0 0 0  0 0 0  0 0 0
0 0 0  0 0 0  0 0 0  0 0 0  0 0 0  0 0 0
0 0 0  0 0 0  0 0 0  0 0 0  0 0 0  0 0 0
0 0 0  0 0 0  0 0 0  0 0 0  0 0 0  0 0 0
0 0 0  0 0 0
0 0 0  0 0 0  0 0 0  0 0 0  0 0 0  0 0 0
0 0 0  0 0 0  0 0 0  0 0 0  0 0 0  0 0 0
0 0 0  0 0 0  0 0 0  0 0 0  0 0 0  0 0 0
0 0 0  0 0 0  0 0 0  0 0 0  0 0 0  0 0 0
0 0 0  16 16 14  138 138 138  188 188 188  199 199 199  209 209 209
214 214 214  214 214 214  202 202 202  196 184 119  203 169 38  223 202 70
230 222 149  230 223 166  242 234 178  242 234 178  244 238 197  245 242 216
247 244 228  245 242 216  230 222 149  217 198 80  188 180 132  179 179 179
179 179 179  179 179 179  170 170 170  153 153 153  91 91 91  13 13 13
0 0 0  0 0 0  0 0 0  0 0 0  0 0 0  0 0 0
0 0 0  0 0 0  0 0 0  0 0 0  0 0 0  0 0 0
0 0 0  0 0 0  0 0 0  0 0 0  0 0 0  0 0 0
0 0 0  0 0 0  0 0 0  0 0 0  0 0 0  0 0 0
0 0 0  0 0 0
0 0 0  0 0 0  0 0 0  0 0 0  0 0 0  0 0 0
0 0 0  0 0 0  0 0 0  0 0 0  0 0 0  0 0 0
0 0 0  0 0 0  0 0 0  0 0 0  0 0 0  0 0 0
0 0 0  0 0 0  0 0 0  0 0 0  0 0 0  0 0 0
0 0 0  0 0 0  40 40 40  153 153 153  188 188 188  197 197 197
203 203 203  206 206 206  202 192 141  212 178 8  216 180 3  218 186 35
231 210 53  226 214 124  230 222 149  242 234 178  242 234 178  244 238 197
245 239 201  245 242 216  247 244 228  247 244 228  222 208 114  160 142 88
138 138 138  121 119 113  84 84 84  24 23 19  0 0 0  0 0 0
0 0 0  0 0 0  0 0 0  0 0 0  0 0 0  0 0 0
0 0 0  0 0 0  0 0 0  0 0 0  0 0 0  0 0 0
0 0 0  0 0 0  0 0 0  0 0 0  0 0 0  0 0 0
0 0 0  0 0 0  0 0 0  0 0 0  0 0 0  0 0 0
0 0 0  0 0 0
0 0 0  0 0 0  0 0 0  0 0 0  0 0 0  0 0 0
0 0 0  0 0 0  0 0 0  0 0 0  0 0 0  0 0 0
0 0 0  0 0 0  0 0 0  0 0 0  0 0 0  0 0 0
0 0 0  0 0 0  0 0 0  0 0 0  0 0 0  0 0 0
0 0 0  0 0 0  0 0 0  40 40 40  153 153 153  179 179 179
189 189 189  192 192 192  189 170 80  238 210 89  216 180 3  216 180 3
216 180 3  216 180 3  228 204 49  238 210 89  230 222 149  242 234 178
242 234 178  244 238 197  245 239 201  245 242 216  245 239 201  181 156 62
138 138 138  138 138 138  138 138 138  67 67 67  1 1 1  0 0 0
0 0 0  0 0 0  0 0 0  0 0 0  0 0 0  0 0 0
0 0 0  0 0 0  0 0 0  0 0 0  0 0 0  0 0 0
0 0 0  0 0 0  0 0 0  0 0 0  0 0 0  0 0 0
0 0 0  0 0 0  0 0 0  0 0 0  0 0 0  0 0 0
0 0 0  0 0 0
0 0 0  0 0 0  0 0 0  0 0 0  0 0 0  0 0 0
0 0 0  0 0 0  0 0 0  0 0 0  0 0 0  0 0 0
0 0 0  0 0 0  0 0 0  0 0 0  0 0 0  0 0 0
0 0 0  0 0 0  0 0 0  0 0 0  0 0 0  0 0 0
0 0 0  0 0 0  13 13 13  121 119 113  153 153 153  138 138 138
138 138 138  153 153 153  161 150 118  222 206 114  238 210 89  216 180 3
216 180 3  216 180 3  216 180 3  216 180 3  231 210 53  230 222 149
242 234 178  242 234 178  242 234 178  244 238 197  224 212 136  161 150 118
161 161 161  161 161 161  170 170 170  170 170 170  121 119 113  7 7 7
0 0 0  0 0 0  0 0 0  0 0 0  0 0 0  0 0 0
0 0 0  0 0 0  0 0 0  0 0 0  0 0 0  0 0 0
0 0 0  0 0 0  0 0 0  0 0 0  0 0 0  0 0 0
0 0 0  0 0 0  0 0 0  0 0 0  0 0 0  0 0 0
0 0 0  0 0 0
0 0 0  0 0 0  0 0 0  0 0 0  0 0 0  0 0 0
0 0 0  0 0 0  0 0 0  0 0 0  0 0 0  0 0 0
0 0 0  0 0 0  0 0 0  0 0 0  0 0 0  0 0 0
0 0 0  0 0 0  0 0 0  0 0 0  0 0 0  0 0 0
0 0 0  24 23 19  161 161 161  179 179 179  170 170 170  153 153 153
138 138 138  138 138 138  121 119 113  163 141 76  230 222 149  238 210 89
216 180 3  216 180 3  216 180 3  216 180 3  216 180 3  228 204 49
226 214 124  230 222 149  230 223 166  224 212 136  175 158 100  170 170 170
179 179 179  179 179 179  187 187 187  192 192 192  198 198 198  161 161 161
16 16 14  0 0 0  0 0 0  0 0 0  0 0 0  0 0 0
0 0 0  0 0 0  0 0 0  0 0 0  0 0 0  0 0 0
0 0 0  0 0 0  0 0 0  0 0 0  0 0 0  0 0 0
0 0 0  0 0 0  0 0 0  0 0 0  0 0 0  0 0 0
0 0 0  0 0 0
0 0 0  0 0 0  0 0 0  0 0 0  0 0 0  0 0 0
0 0 0  0 0 0  0 0 0  0 0 0  0 0 0  0 0 0
0 0 0  13 13 13  3 3 2  0 0 0  0 0 0  0 0 0
0 0 0  0 0 0  0 0 0  0 0 0  0 0 0  0 0 0
24 23 19  187 187 187  208 208 208  197 197 197  187 187 187  179 179 179
170 170 170  153 153 153  138 138 138  138 138 138  171 148 71  230 222 149
238 210 89  216 180 3  216 180 3  216 180 3  216 180 3  216 180 3
228 204 49  226 214 124  226 214 124  184 163 84  161 161 161  179 179 179
192 192 192  199 199 199  205 205 205  209 209 209  214 214 214  218 218 218
179 179 179  21 20 20  0 0 0  0 0 0  0 0 0  0 0 0
0 0 0  0 0 0  0 0 0  0 0 0  0 0 0  4 3 3
10 9 8  0 0 0  0 0 0  0 0 0  0 0 0  0 0 0
0 0 0  0 0 0  0 0 0  0 0 0  0 0 0  0 0 0
0 0 0  0 0 0
0 0 0  0 0 0  0 0 0  0 0 0  0 0 0  0 0 0
0 0 0  0 0 0  0 0 0  0 0 0  0 0 0  0 0 0
3 3 2  73 73 73  0 0 0  0 0 0  0 0 0  0 0 0
0 0 0  0 0 0  0 0 0  0 0 0  0 0 0  13 13 13
188 188 188  226 226 226  218 218 218  210 210 210  202 202 202  196 196 196
187 187 187  179 179 179  161 161 161  153 153 153  138 138 138  184 159 65
230 223 166  238 210 89  216 180 3  216 180 3  216 180 3  216 180 3
216 180 3  228 204 49  184 159 65  153 153 153  179 179 179  196 196 196
207 207 207  215 215 215  219 219 219  222 222 222  225 225 224  229 229 229
231 231 231  187 187 187  10 9 8  0 0 0  0 0 0  0 0 0
0 0 0  0 0 0  0 0 0  0 0 0  0 0 0  0 0 0
76 76 75  1 1 1  0 0 0  0 0 0  0 0 0  0 0 0
0 0 0  0 0 0  0 0 0  0 0 0  0 0 0  0 0 0
0 0 0  0 0 0
0 0 0  0 0 0  0 0 0  0 0 0  0 0 0  0 0 0
0 0 0  0 0 0  0 0 0  0 0 0  0 0 0  0 0 0
91 91 91  61 61 61  0 0 0  0 0 0  0 0 0  0 0 0
0 0 0  0 0 0  0 0 0  0 0 0  3 3 2  161 161 161
234 234 234  231 231 231  226 226 226  220 220 220  214 214 214  208 208 208
202 202 202  196 196 196  187 187 187  170 170 170  153 153 153  121 119 113
190 168 61  242 234 178  238 210 89  216 180 3  216 180 3  216 180 3
216 180 3  195 160 32  138 138 138  161 161 161  189 189 189  207 207 207
218 218 218  225 225 224  229 229 229  231 231 231  231 231 231  234 234 234
236 236 236  238 238 238  153 153 153  0 0 0  0 0 0  0 0 0
0 0 0  0 0 0  0 0 0  0 0 0  0 0 0  0 0 0
61 61 61  88 88 88  0 0 0  0 0 0  0 0 0  0 0 0
0 0 0  0 0 0  0 0 0  0 0 0  0 0 0  0 0 0
0 0 0  0 0 0
0 0 0  0 0 0  0 0 0  0 0 0  0 0 0  0 0 0
0 0 0  0 0 0  0 0 0  0 0 0  1 1 1  84 84 84
138 138 138  7 7 7  0 0 0  0 0 0  0 0 0  0 0 0
0 0 0  0 0 0  0 0 0  0 0 0  110 107 97  239 239 239
237 237 237  234 234 234  231 231 231  229 229 229  224 224 224  220 220 220
215 215 215  209 209 209  202 202 202  187 187 187  170 170 170  138 138 138
130 123 107  199 176 57  242 234 178  238 210 89  216 180 3  216 180 3
200 161 16  121 119 113  153 153 153  179 179 179  202 202 202  218 218 218
227 227 227  231 231 231  234 234 234  234 234 234  237 237 237  238 238 238
239 239 239  240 240 240  238 238 238  91 91 91  0 0 0  0 0 0
0 0 0  0 0 0  0 0 0  0 0 0  0 0 0  0 0 0
13 13 13  138 138 138  76 76 75  0 0 0  0 0 0  0 0 0
0 0 0  0 0 0  0 0 0  0 0 0  0 0 0  0 0 0
0 0 0  0 0 0
0 0 0  0 0 0  0 0 0  0 0 0  0 0 0  0 0 0
0 0 0  0 0 0  0 0 0  3 3 2  91 91 91  138 138 138
73 73 73  0 0 0  0 0 0  0 0 0  0 0 0  0 0 0
0 0 0  0 0 0  0 0 0  31 31 28  231 231 231  240 240 240
239 239 239  238 238 238  234 234 234  233 233 233  231 231 231  229 229 229
225 225 224  220 220 220  215 215 215  204 204 204  188 188 188  170 170 170
138 138 138  128 121 102  217 198 80  230 222 149  223 202 70  200 161 16
128 121 102  138 138 138  170 170 170  196 196 196  214 214 214  226 226 226
233 233 233  236 236 236  238 238 238  238 238 238  239 239 239  239 239 239
240 240 240  240 240 240  240 240 240  227 227 227  29 29 29  0 0 0
0 0 0  0 0 0  0 0 0  0 0 0  0 0 0  0 0 0
0 0 0  73 73 73  138 138 138  84 84 84  1 1 1  0 0 0
0 0 0  0 0 0  0 0 0  0 0 0  0 0 0  0 0 0
0 0 0  0 0 0
0 0 0  0 0 0  0 0 0  0 0 0  0 0 0  0 0 0
0 0 0  0 0 0  5 5 5  110 107 97  138 138 138  84 84 84
21 20 20  0 0 0  0 0 0  0 0 0  0 0 0  0 0 0
0 0 0  0 0 0  1 1 1  153 153 153  237 237 237  240 240 240
240 240 240  238 238 238  237 237 237  237 237 237  234 234 234  233 233 233
231 231 231  229 229 229  225 225 224  216 216 216  205 205 205  187 187 187
161 161 161  138 138 138  135 125 100  176 146 52  176 146 52  135 125 100
138 138 138  161 161 161  189 189 189  209 209 209  222 222 222  231 231 231
236 236 236  238 238 238  239 239 239  240 240 240  240 240 240  240 240 240
240 240 240  240 240 240  240 240 240  240 240 240  161 161 161  0 0 0
0 0 0  0 0 0  0 0 0  0 0 0  0 0 0  0 0 0
0 0 0  21 20 20  84 84 84  138 138 138  103 101 93  3 3 2
0 0 0  0 0 0  0 0 0  0 0 0  0 0 0  0 0 0
0 0 0  0 0 0
0 0 0  0 0 0  0 0 0  0 0 0  0 0 0  0 0 0
0 0 0  13 13 13  121 119 113  138 138 138  84 84 84  24 23 19
0 0 0  0 0 0  0 0 0  0 0 0  0 0 0  0 0 0
0 0 0  0 0 0  61 61 61  216 216 216  238 238 238  240 240 240
239 239 239  239 239 239  239 239 239  237 237 237  236 236 236  236 236 236
234 234 234  233 233 233  231 231 231  226 226 226  218 218 218  204 204 204
187 187 187  170 170 170  153 153 153  138 138 138  138 138 138  153 153 153
161 161 161  187 187 187  204 204 204  219 219 219  229 229 229  234 234 234
237 237 237  239 239 239  240 240 240  240 240 240  240 240 240  240 240 240
240 240 240  240 240 240  240 240 240  239 239 239  237 237 237  54 52 46
0 0 0  0 0 0  0 0 0  0 0 0  0 0 0  0 0 0
0 0 0  0 0 0  21 20 20  84 84 84  138 138 138  121 119 113
10 9 8  0 0 0  0 0 0  0 0 0  0 0 0  0 0 0
0 0 0  0 0 0
0 0 0  0 0 0  0 0 0  0 0 0  0 0 0  0 0 0
31 31 28  153 153 153  138 138 138  84 84 84  24 23 19  0 0 0
0 0 0  0 0 0  0 0 0  0 0 0  0 0 0  0 0 0
0 0 0  0 0 0  153 153 153  229 229 229  238 238 238  239 239 239
239 239 239  238 238 238  238 238 238  238 238 238  238 238 238  237 237 237
236 236 236  234 234 234  234 234 234  231 231 231  225 225 224  216 216 216
204 204 204  189 189 189  179 179 179  170 170 170  170 170 170  179 179 179
187 187 187  202 202 202  216 216 216  226 226 226  233 233 233  236 236 236
238 238 238  238 238 238  239 239 239  239 239 239  239 239 239  239 239 239
239 239 239  239 239 239  239 239 239  239 239 239  238 238 238  170 170 170
0 0 0  0 0 0  0 0 0  0 0 0  0 0 0  0 0 0
0 0 0  0 0 0  0 0 0  24 23 19  84 84 84  138 138 138
138 138 138  29 29 29  0 0 0  0 0 0  0 0 0  0 0 0
0 0 0  0 0 0
0 0 0  0 0 0  0 0 0  0 0 0  0 0 0  70 70 70
170 170 170  138 138 138  84 84 84  21 20 20  0 0 0  0 0 0
0 0 0  0 0 0  0 0 0  0 0 0  0 0 0  0 0 0
0 0 0  48 45 42  197 197 197  233 233 233  237 237 237  237 237 237
237 237 237  237 237 237  237 237 237  237 237 237  237 237 237  237 237 237
236 236 236  236 236 236  234 234 234  234 234 234  231 231 231  224 224 224
216 216 216  207 207 207  198 198 198  192 192 192  191 191 191  196 196 196
204 204 204  214 214 214  224 224 224  229 229 229  233 233 233  234 234 234
237 237 237  237 237 237  237 237 237  237 237 237  237 237 237  237 237 237
237 237 237  237 237 237  237 237 237  237 237 237  236 236 236  225 225 224
40 40 40  0 0 0  0 0 0  0 0 0  0 0 0  0 0 0
0 0 0  0 0 0  0 0 0  0 0 0  21 20 20  84 84 84
138 138 138  170 170 170  65 64 61  0 0 0  0 0 0  0 0 0
0 0 0  0 0 0
0 0 0  0 0 0  0 0 0  0 0 0  91 91 91  179 179 179
138 138 138  84 84 84  21 20 20  0 0 0  0 0 0  0 0 0
0 0 0  0 0 0  0 0 0  0 0 0  0 0 0  0 0 0
0 0 0  138 138 138  206 206 206  231 231 231  236 236 236  236 236 236
236 236 236  236 236 236  236 236 236  236 236 236  236 236 236  236 236 236
236 236 236  236 236 236  234 234 234  234 234 234  233 233 233  229 229 229
224 224 224  218 218 218  210 210 210  206 206 206  204 204 204  208 208 208
212 212 212  219 219 219  227 227 227  231 231 231  233 233 233  234 234 234
236 236 236  236 236 236  236 236 236  236 236 236  236 236 236  236 236 236
236 236 236  236 236 236  236 236 236  236 236 236  236 236 236  233 233 233
121 119 113  0 0 0  0 0 0  0 0 0  0 0 0  0 0 0
0 0 0  0 0 0  0 0 0  0 0 0  0 0 0  21 20 20
84 84 84  138 138 138  179 179 179  84 84 84  0 0 0  0 0 0
0 0 0  0 0 0
0 0 0  0 0 0  0 0 0  91 91 91  179 179 179  138 138 138
76 76 75  13 13 13  0 0 0  0 0 0  0 0 0  0 0 0
0 0 0  0 0 0  0 0 0  0 0 0  0 0 0  0 0 0
13 13 13  187 187 187  215 215 215  231 231 231  234 234 234  234 234 234
234 234 234  234 234 234  234 234 234  234 234 234  234 234 234  234 234 234
234 234 234  234 234 234  234 234 234  234 234 234  233 233 233  231 231 231
227 227 227  222 222 222  216 216 216  212 212 212  210 210 210  214 214 214
218 218 218  223 223 223  227 227 227  231 231 231  233 233 233  233 233 233
234 233 234  234 234 234  234 234 234  234 234 234  234 234 234  234 234 234
234 234 234  234 234 234  234 234 234  234 234 234  234 234 234  234 234 234
187 187 187  7 7 7  0 0 0  0 0 0  0 0 0  0 0 0
0 0 0  0 0 0  0 0 0  0 0 0  0 0 0  0 0 0
13 13 13  81 79 74  138 138 138  179 179 179  88 88 88  0 0 0
0 0 0  0 0 0
0 0 0  0 0 0  81 79 74  179 179 179  138 138 138  67 67 67
3 3 2  0 0 0  0 0 0  0 0 0  0 0 0  0 0 0
0 0 0  0 0 0  0 0 0  0 0 0  0 0 0  0 0 0
70 70 70  192 192 192  220 220 220  231 231 231  233 233 233  233 233 233
233 233 233  233 233 233  233 233 233  233 233 233  233 233 233  233 233 233
233 233 233  233 233 233  233 233 233  233 233 233  233 233 233  231 231 231
227 227 227  224 224 224  219 219 219  216 216 216  215 215 215  218 218 218
220 220 220  224 224 224  161 161 161  88 88 88  88 88 88  88 88 88
88 88 88  138 138 138  231 231 231  231 231 231  233 233 233  233 233 233
233 233 233  233 233 233  233 233 233  233 233 233  233 233 233  233 233 233
205 205 205  61 61 61  0 0 0  0 0 0  0 0 0  0 0 0
0 0 0  0 0 0  0 0 0  0 0 0  0 0 0  0 0 0
0 0 0  5 5 5  67 67 67  138 138 138  179 179 179  73 73 73
0 0 0  0 0 0
0 0 0  54 52 46  170 170 170  138 138 138  61 61 61  0 0 0
0 0 0  0 0 0  10 9 8  54 52 46  84 84 84  54 52 46
0 0 0  0 0 0  0 0 0  0 0 0  0 0 0  0 0 0
121 119 113  192 192 192  224 224 224  231 231 231  231 231 231  231 231 231
231 231 231  231 231 231  231 231 231  231 231 231  231 231 231  231 231 231
231 231 231  231 231 231  231 231 231  231 231 231  231 231 231  229 229 229
227 227 227  225 225 224  220 220 220  219 219 219  219 219 219  222 222 222
223 223 223  226 226 226  48 45 42  29 29 29  29 29 29  29 29 29
29 29 29  161 161 161  231 231 231  231 231 231  231 231 231  231 231 231
231 231 231  231 231 231  231 231 231  231 231 231  231 231 231  231 231 231
210 210 210  121 119 113  0 0 0  0 0 0  0 0 0  0 0 0
0 0 0  0 0 0  61 61 61  84 84 84  48 45 42  7 7 7
0 0 0  0 0 0  1 1 1  61 61 61  138 138 138  170 170 170
48 45 42  0 0 0
16 16 14  161 161 161  138 138 138  61 61 61  0 0 0  0 0 0
10 9 8  61 61 61  88 88 88  40 40 40  7 7 7  0 0 0
0 0 0  0 0 0  0 0 0  0 0 0  0 0 0  4 3 3
179 179 179  192 192 192  226 226 226  229 229 229  229 229 229  229 229 229
229 229 229  229 229 229  229 229 229  229 229 229  229 229 229  229 229 229
229 229 229  229 229 229  229 229 229  229 229 229  229 229 229  229 229 229
227 227 227  225 225 224  223 223 223  222 222 222  222 222 222  222 222 222
224 224 224  179 179 179  29 29 29  29 29 29  29 29 29  29 29 29
61 61 61  229 229 229  229 229 229  229 229 229  229 229 229  229 229 229
229 229 229  229 229 229  229 229 229  229 229 229  229 229 229  229 229 229
212 212 212  170 170 170  1 1 1  0 0 0  0 0 0  0 0 0
0 0 0  0 0 0  0 0 0  10 9 8  48 45 42  91 91 91
61 61 61  7 7 7  0 0 0  1 1 1  61 61 61  138 138 138
153 153 153  13 13 13
103 101 93  138 138 138  67 67 67  1 1 1  3 3 2  54 52 46
91 91 91  29 29 29  1 1 1  0 0 0  0 0 0  0 0 0
0 0 0  0 0 0  0 0 0  0 0 0  0 0 0  29 29 29
191 191 191  196 196 196  226 226 226  227 227 227  227 227 227  227 227 227
227 227 227  227 227 227  227 227 227  227 227 227  227 227 227  227 227 227
229 229 229  229 229 229  229 229 229  227 227 227  227 227 227  226 226 226
226 226 226  224 224 224  224 224 224  223 223 223  223 223 223  223 223 223
223 223 223  88 88 88  29 29 29  29 29 29  29 29 29  29 29 29
153 153 153  227 227 227  227 227 227  227 227 227  227 227 227  227 227 227
227 227 227  227 227 227  227 227 227  227 227 227  227 227 227  227 227 227
215 215 215  189 189 189  13 13 13  0 0 0  0 0 0  0 0 0
0 0 0  0 0 0  0 0 0  0 0 0  0 0 0  1 1 1
31 31 28  91 91 91  48 45 42  1 1 1  1 1 1  67 67 67
138 138 138  91 91 91
138 138 138  76 76 75  3 3 2  29 29 29  84 84 84  48 45 42
3 3 2  0 0 0  0 0 0  0 0 0  0 0 0  0 0 0
0 0 0  0 0 0  0 0 0  0 0 0  0 0 0  61 61 61
192 192 192  196 196 196  225 225 224  226 226 226  226 226 226  226 226 226
226 226 226  226 226 226  226 226 226  226 226 226  225 225 224  225 225 224
121 237 176  121 237 176  121 237 176  121 237 176  121 237 176  172 228 207
226 226 226  225 225 224  225 225 224  224 224 224  224 224 224  224 224 224
205 205 205  29 29 29  29 29 29  29 29 29  29 29 29  40 40 40
223 223 223  226 226 226  226 226 226  225 225 224  225 225 224  225 225 224
226 226 226  226 226 226  226 226 226  226 226 226  226 226 226  226 226 226
215 215 215  192 192 192  54 52 46  0 0 0  0 0 0  0 0 0
0 0 0  0 0 0  0 0 0  0 0 0  0 0 0  0 0 0
0 0 0  3 3 2  54 52 46  84 84 84  24 23 19  4 3 3
76 76 75  138 138 138
70 70 70  13 13 13  73 73 73  67 67 67  7 7 7  0 0 0
0 0 0  0 0 0  0 0 0  0 0 0  0 0 0  0 0 0
0 0 0  0 0 0  0 0 0  0 0 0  0 0 0  91 91 91
191 191 191  197 197 197  223 223 223  224 224 224  224 224 224  224 224 224
224 224 224  224 224 224  224 224 224  224 224 224  224 224 224  222 222 222
172 228 207  0 228 146  0 228 146  0 228 146  0 228 146  0 228 146
224 224 224  224 224 224  224 224 224  224 224 224  224 224 224  224 224 224
121 119 113  29 29 29  29 29 29  29 29 29  29 29 29  121 119 113
224 224 224  224 224 224  223 223 223  223 223 223  223 223 223  224 224 224
224 224 224  224 224 224  224 224 224  224 224 224  224 224 224  224 224 224
215 215 215  191 191 191  84 84 84  0 0 0  0 0 0  0 0 0
0 0 0  0 0 0  0 0 0  0 0 0  0 0 0  0 0 0
0 0 0  0 0 0  0 0 0  10 9 8  67 67 67  70 70 70
13 13 13  67 67 67
0 0 0  5 5 5  5 5 5  0 0 0  0 0 0  0 0 0
0 0 0  0 0 0  0 0 0  0 0 0  0 0 0  0 0 0
0 0 0  0 0 0  0 0 0  0 0 0  0 0 0  121 119 113
190 190 190  197 197 197  220 220 220  222 222 222  222 222 222  222 222 222
222 222 222  222 222 222  222 222 222  222 222 222  222 222 222  222 222 222
222 222 222  0 228 146  0 228 146  0 228 146  0 228 146  0 228 146
172 228 207  224 224 224  223 223 223  224 224 224  224 224 224  223 223 223
48 45 42  29 29 29  29 29 29  29 29 29  29 29 29  202 202 202
223 223 223  223 223 223  222 222 222  220 220 220  220 220 220  222 222 222
222 222 222  222 222 222  222 222 222  222 222 222  222 222 222  222 222 222
215 215 215  190 190 190  111 111 109  0 0 0  0 0 0  0 0 0
0 0 0  0 0 0  0 0 0  0 0 0  0 0 0  0 0 0
0 0 0  0 0 0  0 0 0  0 0 0  0 0 0  7 7 7
3 3 2  0 0 0
0 0 0  0 0 0  0 0 0  0 0 0  0 0 0  0 0 0
0 0 0  0 0 0  0 0 0  0 0 0  0 0 0  0 0 0
0 0 0  0 0 0  0 0 0  0 0 0  0 0 0  138 138 138
189 189 189  196 196 196  220 220 220  220 220 220  220 220 220  220 220 220
220 220 220  220 220 220  220 220 220  220 220 220  220 220 220  220 220 220
220 220 220  172 228 207  0 228 146  0 228 146  0 228 146  0 228 146
0 228 146  223 223 223  223 223 223  224 224 224  223 223 223  161 161 161
29 29 29  29 29 29  29 29 29  29 29 29  84 84 84  222 222 222
222 222 222  220 220 220  220 220 220  220 220 220  219 219 219  220 220 220
220 220 220  220 220 220  220 220 220  220 220 220  220 220 220  220 220 220
214 214 214  189 189 189  121 119 113  0 0 0  0 0 0  0 0 0
0 0 0  0 0 0  0 0 0  0 0 0  0 0 0  0 0 0
0 0 0  0 0 0  0 0 0  0 0 0  0 0 0  0 0 0
0 0 0  0 0 0
0 0 0  0 0 0  0 0 0  0 0 0  0 0 0  0 0 0
0 0 0  0 0 0  0 0 0  0 0 0  0 0 0  0 0 0
0 0 0  0 0 0  0 0 0  0 0 0  0 0 0  138 138 138
188 188 188  196 196 196  218 218 218  218 218 218  218 218 218  218 218 218
218 218 218  218 218 218  218 218 218  218 218 218  218 218 218  218 218 218
219 219 219  220 220 220  0 228 146  0 228 146  0 228 146  0 228 146
0 228 146  172 228 207  222 222 222  223 223 223  223 223 223  76 76 75
29 29 29  29 29 29  29 29 29  29 29 29  170 170 170  222 222 222
220 220 220  220 220 220  219 219 219  218 218 218  218 218 218  218 218 218
218 218 218  218 218 218  218 218 218  218 218 218  218 218 218  218 218 218
212 212 212  188 188 188  138 138 138  0 0 0  0 0 0  0 0 0
0 0 0  0 0 0  0 0 0  0 0 0  0 0 0  0 0 0
0 0 0  0 0 0  0 0 0  0 0 0  0 0 0  0 0 0
0 0 0  0 0 0
0 0 0  0 0 0  0 0 0  0 0 0  0 0 0  0 0 0
0 0 0  0 0 0  0 0 0  0 0 0  0 0 0  0 0 0
0 0 0  0 0 0  0 0 0  0 0 0  0 0 0  153 153 153
188 188 188  192 192 192  216 216 216  216 216 216  216 216 216  216 216 216
216 216 216  216 216 216  216 216 216  216 216 216  216 216 216  216 216 216
218 218 218  219 219 219  121 237 176  0 228 146  0 228 146  0 228 146
0 228 146  0 228 146  222 222 222  223 223 223  196 196 196  29 29 29
29 29 29  29 29 29  29 29 29  61 61 61  220 220 220  220 220 220
219 219 219  218 218 218  218 218 218  216 216 216  215 215 215  216 216 216
216 216 216  216 216 216  216 216 216  216 216 216  216 216 216  216 216 216
208 208 208  188 188 188  138 138 138  0 0 0  0 0 0  0 0 0
0 0 0  0 0 0  0 0 0  0 0 0  0 0 0  0 0 0
0 0 0  0 0 0  0 0 0  0 0 0  0 0 0  0 0 0
0 0 0  0 0 0
0 0 0  0 0 0  0 0 0  0 0 0  0 0 0  0 0 0
0 0 0  0 0 0  0 0 0  0 0 0  0 0 0  0 0 0
0 0 0  0 0 0  0 0 0  0 0 0  0 0 0  153 153 153
187 187 187  189 189 189  214 214 214  214 214 214  214 214 214  214 214 214
214 214 214  214 214 214  214 214 214  214 214 214  214 214 214  215 215 215
216 216 216  218 218 218  218 218 218  0 228 146  0 228 146  0 228 146
0 228 146  0 228 146  172 228 207  222 222 222  103 101 93  29 29 29
29 29 29  29 29 29  29 29 29  138 138 138  220 220 220  218 218 218
216 216 216  216 216 216  216 216 216  214 214 214  214 214 214  214 214 214
214 214 214  214 214 214  214 214 214  214 214 214  214 214 214  214 214 214
205 205 205  187 187 187  138 138 138  0 0 0  0 0 0  0 0 0
0 0 0  0 0 0  0 0 0  0 0 0  0 0 0  0 0 0
0 0 0  0 0 0  0 0 0  0 0 0  0 0 0  0 0 0
0 0 0  0 0 0
0 0 0  0 0 0  0 0 0  0 0 0  0 0 0  0 0 0
0 0 0  0 0 0  0 0 0  0 0 0  0 0 0  0 0 0
0 0 0  13 13 13  3 3 2  0 0 0  0 0 0  138 138 138
187 187 187  187 187 187  212 212 212  212 212 212  212 212 212  212 212 212
212 212 212  212 212 212  212 212 212  212 212 212  212 212 212  214 214 214
214 214 214  216 216 216  218 218 218  121 237 176  0 228 146  0 228 146
0 228 146  0 228 146  172 228 207  220 220 220  29 27 19  29 29 29
29 29 29  29 29 29  31 31 28  214 214 214  218 218 218  216 216 216
215 215 215  215 215 215  214 214 214  212 212 212  212 212 212  212 212 212
212 212 212  212 212 212  212 212 212  212 212 212  212 212 212  212 212 212
202 202 202  187 187 187  138 138 138  0 0 0  0 0 0  5 5 5
13 13 13  0 0 0  0 0 0  0 0 0  0 0 0  0 0 0
0 0 0  0 0 0  0 0 0  0 0 0  0 0 0  0 0 0
0 0 0  0 0 0
0 0 0  0 0 0  0 0 0  0 0 0  0 0 0  0 0 0
0 0 0  0 0 0  0 0 0  0 0 0  0 0 0  0 0 0
0 0 0  7 7 7  76 76 75  5 5 5  0 0 0  138 138 138
187 187 187  187 187 187  207 207 207  210 210 210  210 210 210  210 210 210
210 210 210  210 210 210  210 210 210  210 210 210  210 210 210  210 210 210
212 212 212  214 214 214  216 216 216  201 223 215  0 228 146  0 228 146
0 228 146  0 228 146  220 220 220  153 153 153  29 29 29  29 29 29
29 29 29  29 29 29  111 111 109  218 218 218  215 215 215  214 214 214
214 214 214  212 212 212  212 212 212  209 209 209  209 209 209  210 210 210
210 210 210  210 210 210  210 210 210  210 210 210  210 210 210  210 210 210
197 197 197  187 187 187  121 119 113  0 0 0  7 7 7  76 76 75
4 3 3  0 0 0  0 0 0  0 0 0  0 0 0  0 0 0
0 0 0  0 0 0  0 0 0  0 0 0  0 0 0  0 0 0
0 0 0  0 0 0
0 0 0  0 0 0  0 0 0  0 0 0  0 0 0  0 0 0
0 0 0  0 0 0  0 0 0  0 0 0  0 0 0  0 0 0
0 0 0  0 0 0  73 73 73  91 91 91  10 9 8  111 111 109
187 187 187  187 187 187  202 202 202  208 208 208  208 208 208  208 208 208
208 208 208  208 208 208  208 208 208  208 208 208  208 208 208  208 208 208
207 207 207  210 210 210  214 214 214  215 215 215  121 237 176  0 228 146
0 228 146  172 228 207  218 218 218  52 48 40  29 29 29  29 29 29
29 29 29  29 29 29  192 192 192  214 214 214  212 212 212  212 212 212
210 210 210  210 210 210  209 209 209  207 207 207  207 207 207  208 208 208
208 208 208  208 208 208  208 208 208  208 208 208  208 208 208  208 208 208
192 192 192  187 187 187  111 111 109  13 13 13  91 91 91  67 67 67
0 0 0  0 0 0  0 0 0  0 0 0  0 0 0  0 0 0
0 0 0  0 0 0  0 0 0  0 0 0  0 0 0  0 0 0
0 0 0  0 0 0
0 0 0  0 0 0  0 0 0  0 0 0  0 0 0  0 0 0
0 0 0  0 0 0  0 0 0  0 0 0  0 0 0  0 0 0
0 0 0  0 0 0  21 20 20  121 119 113  111 111 109  111 111 109
187 187 187  187 187 187  197 197 197  206 206 206  206 206 206  206 206 206
206 206 206  206 206 206  206 206 206  206 206 206  206 206 206  206 206 206
206 206 206  208 208 208  212 212 212  214 214 214  186 223 197  0 228 146
0 228 146  216 216 216  191 188 190  24 23 19  29 29 29  29 29 29
29 29 29  88 88 88  215 215 215  212 212 212  210 210 210  209 209 209
208 208 208  207 207 207  207 207 207  205 205 205  205 205 205  206 206 206
206 206 206  206 206 206  206 206 206  206 206 206  206 206 206  206 206 206
187 187 187  187 187 187  111 111 109  111 111 109  121 119 113  16 16 14
0 0 0  0 0 0  0 0 0  0 0 0  0 0 0  0 0 0
0 0 0  0 0 0  0 0 0  0 0 0  0 0 0  0 0 0
0 0 0  0 0 0
0 0 0  0 0 0  0 0 0  0 0 0  0 0 0  0 0 0
0 0 0  0 0 0  0 0 0  0 0 0  0 0 0  0 0 0
0 0 0  0 0 0  0 0 0  84 84 84  138 138 138  153 153 153
179 179 179  179 179 179  192 192 192  203 203 203  203 203 203  203 203 203
203 203 203  203 203 203  203 203 203  203 203 203  203 203 203  203 203 203
204 204 204  206 206 206  208 208 208  209 209 209  210 210 210  121 237 176
172 228 207  215 215 215  61 57 46  29 29 29  29 29 29  29 29 29
61 61 61  206 206 206  210 210 210  209 209 209  208 208 208  206 206 206
204 204 204  203 203 203  202 202 202  202 202 202  203 203 203  203 203 203
203 203 203  203 203 203  203 203 203  203 203 203  203 203 203  203 203 203
179 179 179  179 179 179  138 138 138  138 138 138  76 76 75  0 0 0
0 0 0  0 0 0  0 0 0  0 0 0  0 0 0  0 0 0
0 0 0  0 0 0  0 0 0  0 0 0  0 0 0  0 0 0
0 0 0  0 0 0
0 0 0  0 0 0  0 0 0  0 0 0  0 0 0  0 0 0
0 0 0  0 0 0  0 0 0  0 0 0  0 0 0  0 0 0
0 0 0  0 0 0  0 0 0  16 16 14  138 138 138  138 138 138
179 179 179  179 179 179  187 187 187  199 199 199  199 199 199  199 199 199
199 199 199  199 199 199  199 199 199  198 198 198  199 199 199  199 199 199
199 199 199  202 202 202  204 204 204  205 205 205  207 207 207  208 208 208
210 210 210  138 138 138  29 29 29  40 40 40  61 61 61  121 119 113
212 212 212  208 208 208  207 207 207  205 205 205  204 204 204  202 202 202
199 199 199  199 199 199  198 198 198  199 199 199  198 198 198  198 198 198
198 198 198  198 198 198  199 199 199  199 199 199  199 199 199  196 196 196
179 179 179  179 179 179  138 138 138  121 119 113  13 13 13  0 0 0
0 0 0  0 0 0  0 0 0  0 0 0  0 0 0  0 0 0
0 0 0  0 0 0  0 0 0  0 0 0  0 0 0  0 0 0
0 0 0  0 0 0
0 0 0  0 0 0  0 0 0  0 0 0  0 0 0  0 0 0
0 0 0  0 0 0  0 0 0  0 0 0  0 0 0  0 0 0
0 0 0  0 0 0  0 0 0  0 0 0  67 67 67  138 138 138
179 179 179  179 179 179  179 179 179  196 196 196  192 192 192  192 192 192
192 192 192  191 191 191  191 191 191  192 192 192  192 192 192  192 192 192
196 196 196  196 196 196  197 197 197  199 199 199  202 202 202  203 203 203
203 203 203  205 205 205  207 207 207  210 210 210  210 210 210  210 210 210
206 206 206  204 204 204  202 202 202  199 199 199  196 196 196  196 196 196
192 192 192  190 190 190  191 191 191  191 191 191  190 190 190  190 190 190
190 190 190  191 191 191  192 192 192  192 192 192  196 196 196  187 187 187
179 179 179  179 179 179  138 138 138  61 61 61  0 0 0  0 0 0
0 0 0  0 0 0  0 0 0  0 0 0  0 0 0  0 0 0
0 0 0  0 0 0  0 0 0  0 0 0  0 0 0  0 0 0
0 0 0  0 0 0
0 0 0  0 0 0  0 0 0  0 0 0  0 0 0  0 0 0
0 0 0  0 0 0  0 0 0  0 0 0  0 0 0  0 0 0
0 0 0  0 0 0  0 0 0  0 0 0  4 3 3  111 111 109
161 161 161  170 170 170  170 170 170  179 179 179  179 179 179  179 179 179
179 179 179  179 179 179  179 179 179  179 179 179  179 179 179  179 179 179
179 179 179  187 187 187  190 190 190  196 196 196  196 196 196  197 197 197
199 199 199  202 202 202  203 203 203  204 204 204  202 202 202  202 202 202
199 199 199  197 197 197  192 192 192  188 188 188  188 188 188  187 187 187
179 179 179  179 179 179  179 179 179  179 179 179  179 179 179  179 179 179
179 179 179  179 179 179  179 179 179  179 179 179  179 179 179  170 170 170
170 170 170  161 161 161  111 111 109  3 3 2  0 0 0  0 0 0
0 0 0  0 0 0  0 0 0  0 0 0  0 0 0  0 0 0
0 0 0  0 0 0  0 0 0  0 0 0  0 0 0  0 0 0
0 0 0  0 0 0
0 0 0  0 0 0  0 0 0  0 0 0  0 0 0  0 0 0
0 0 0  0 0 0  0 0 0  0 0 0  0 0 0  0 0 0
0 0 0  0 0 0  0 0 0  0 0 0  0 0 0  21 20 20
138 138 138  161 161 161  153 153 153  172 162 125  172 162 125  177 166 117
177 166 117  172 162 125  172 162 125  161 161 161  161 161 161  161 161 161
170 170 170  170 170 170  179 179 179  179 179 179  187 187 187  189 189 189
192 192 192  196 196 196  198 198 198  198 198 198  196 196 196  196 196 196
192 192 192  187 187 187  179 179 179  179 179 179  179 179 179  170 170 170
170 170 170  161 161 161  161 161 161  161 161 161  153 153 153  161 150 118
161 150 118  175 158 100  175 158 100  172 162 125  172 162 125  153 153 153
161 161 161  138 138 138  16 16 14  0 0 0  0 0 0  0 0 0
0 0 0  0 0 0  0 0 0  0 0 0  0 0 0  0 0 0
0 0 0  0 0 0  0 0 0  0 0 0  0 0 0  0 0 0
0 0 0  0 0 0
0 0 0  0 0 0  0 0 0  0 0 0  0 0 0  0 0 0
0 0 0  0 0 0  0 0 0  0 0 0  0 0 0  0 0 0
0 0 0  0 0 0  0 0 0  0 0 0  1 1 1  29 27 19
165 137 58  198 161 23  204 171 0  204 171 0  204 171 0  204 171 0
204 171 0  204 171 0  200 161 16  200 161 16  189 157 42  171 148 71
161 150 118  153 153 153  161 161 161  161 161 161  170 170 170  179 179 179
179 179 179  188 188 188  190 190 190  192 192 192  190 190 190  188 188 188
187 187 187  179 179 179  170 170 170  170 170 170  161 161 161  153 153 153
153 153 153  156 145 108  171 148 71  189 157 42  200 161 16  200 161 16
204 171 0  204 171 0  204 171 0  204 171 0  204 171 0  204 171 0
198 161 23  165 137 58  20 13 1  1 0 0  0 0 0  0 0 0
0 0 0  0 0 0  0 0 0  0 0 0  0 0 0  0 0 0
0 0 0  0 0 0  0 0 0  0 0 0  0 0 0  0 0 0
0 0 0  0 0 0
0 0 0  0 0 0  0 0 0  0 0 0  0 0 0  0 0 0
0 0 0  0 0 0  0 0 0  0 0 0  0 0 0  0 0 0
0 0 0  0 0 0  3 3 2  40 34 24  200 161 16  204 171 0
212 178 8  217 198 80  226 214 124  230 222 149  228 219 152  224 212 136
224 208 102  216 188 36  204 171 0  204 171 0  204 171 0  200 161 16
200 161 16  195 160 32  160 142 88  149 144 126  153 153 153  161 161 161
170 170 170  179 179 179  179 179 179  187 187 187  179 179 179  179 179 179
170 170 170  170 170 170  153 153 153  153 153 153  138 138 138  160 142 88
195 160 32  200 161 16  200 161 16  204 171 0  204 171 0  204 171 0
204 171 0  205 175 9  213 190 54  222 206 114  224 212 136  228 219 152
224 212 136  222 206 114  213 190 54  200 161 16  40 34 24  3 3 2
0 0 0  0 0 0  0 0 0  0 0 0  0 0 0  0 0 0
0 0 0  0 0 0  0 0 0  0 0 0  0 0 0  0 0 0
0 0 0  0 0 0
0 0 0  0 0 0  0 0 0  0 0 0  0 0 0  0 0 0
0 0 0  0 0 0  0 0 0  0 0 0  0 0 0  0 0 0
0 0 0  29 27 19  200 161 16  204 171 0  212 178 8  226 214 124
243 240 218  243 240 218  243 240 218  243 240 218  243 240 218  243 240 218
234 232 217  234 232 217  225 219 170  213 190 54  204 171 0  204 171 0
204 171 0  200 161 16  200 161 16  176 146 52  148 136 104  138 138 138
153 153 153  161 161 161  170 170 170  179 179 179  179 179 179  170 170 170
161 161 161  153 153 153  138 138 138  143 134 110  176 146 52  200 161 16
200 161 16  204 171 0  204 171 0  204 171 0  204 171 0  212 178 8
224 208 102  236 231 196  243 240 218  243 240 218  243 240 218  243 240 218
243 240 218  247 244 228  247 244 228  245 239 201  224 208 102  200 161 16
20 13 1  0 0 0  0 0 0  0 0 0  0 0 0  0 0 0
0 0 0  0 0 0  0 0 0  0 0 0  0 0 0  0 0 0
0 0 0  0 0 0
0 0 0  0 0 0  0 0 0  0 0 0  0 0 0  0 0 0
0 0 0  0 0 0  0 0 0  0 0 0  0 0 0  0 0 0
52 48 40  204 171 0  216 180 3  222 196 50  240 234 187  245 239 201
245 239 201  245 239 201  245 239 201  241 236 195  236 231 196  236 231 196
236 231 196  236 231 196  236 231 196  236 231 196  218 204 112  204 171 0
204 171 0  204 171 0  204 171 0  200 161 16  200 161 16  149 132 83
138 138 138  153 153 153  161 161 161  161 161 161  161 161 161  153 153 153
138 138 138  138 138 138  143 130 83  200 161 16  200 161 16  204 171 0
204 171 0  204 171 0  204 171 0  204 171 0  212 178 8  228 219 152
236 231 196  236 231 196  236 231 196  236 231 196  241 236 195  245 239 201
245 239 201  245 239 201  245 239 201  245 239 201  245 239 201  230 223 166
200 161 16  40 34 24  0 0 0  0 0 0  0 0 0  0 0 0
0 0 0  0 0 0  0 0 0  0 0 0  0 0 0  0 0 0
0 0 0  0 0 0
0 0 0  0 0 0  0 0 0  0 0 0  0 0 0  0 0 0
0 0 0  0 0 0  0 0 0  0 0 0  0 0 0  52 48 40
204 171 0  216 180 3  218 186 35  242 234 178  240 234 187  242 234 178
242 234 178  242 234 178  242 234 178  242 234 178  242 234 178  225 224 179
225 224 179  225 224 179  225 224 179  225 219 170  225 219 170  217 198 80
204 171 0  204 171 0  204 171 0  204 171 0  200 161 16  200 161 16
143 130 83  138 138 138  138 138 138  153 153 153  153 153 153  138 138 138
138 138 138  143 130 83  200 161 16  200 161 16  204 171 0  204 171 0
204 171 0  204 171 0  204 171 0  212 178 8  224 212 136  225 224 179
225 224 179  225 224 179  225 224 179  242 234 178  242 234 178  242 234 178
242 234 178  242 234 178  242 234 178  240 234 187  240 234 187  240 234 187
230 222 149  204 171 0  40 34 24  0 0 0  0 0 0  0 0 0
0 0 0  0 0 0  0 0 0  0 0 0  0 0 0  0 0 0
0 0 0  0 0 0
0 0 0  0 0 0  0 0 0  0 0 0  0 0 0  0 0 0
0 0 0  0 0 0  0 0 0  0 0 0  20 13 1  204 171 0
216 180 3  216 180 3  224 208 102  242 234 178  230 223 166  230 223 166
230 223 166  230 223 166  230 223 166  230 223 166  228 219 152  228 219 152
228 219 152  228 219 152  228 219 152  228 219 152  228 219 152  221 211 155
205 175 9  204 171 0  204 171 0  204 171 0  200 161 16  200 161 16
198 161 23  130 123 107  138 138 138  138 138 138  138 138 138  121 119 113
119 116 105  200 161 16  200 161 16  204 171 0  204 171 0  204 171 0
204 171 0  204 171 0  204 171 0  213 190 54  228 219 152  228 219 152
228 219 152  228 219 152  228 219 152  228 219 152  230 223 166  230 223 166
230 223 166  230 223 166  230 223 166  230 223 166  242 234 178  242 234 178
242 234 178  220 198 56  200 161 16  20 13 1  0 0 0  0 0 0
0 0 0  0 0 0  0 0 0  0 0 0  0 0 0  0 0 0
0 0 0  0 0 0
0 0 0  0 0 0  0 0 0  0 0 0  0 0 0  0 0 0
0 0 0  0 0 0  0 0 0  0 0 0  165 137 58  216 180 3
216 180 3  216 180 3  230 222 149  230 222 149  230 222 149  230 222 149
230 222 149  230 222 149  230 222 149  224 212 136  224 212 136  224 212 136
224 212 136  224 212 136  224 212 136  224 212 136  220 210 134  220 210 134
213 190 54  204 171 0  204 171 0  204 171 0  204 171 0  200 161 16
200 161 16  165 137 58  121 119 113  121 119 113  121 119 113  121 119 113
165 137 58  200 161 16  200 161 16  204 171 0  204 171 0  204 171 0
204 171 0  204 171 0  204 171 0  217 198 80  224 212 136  224 212 136
224 212 136  224 212 136  224 212 136  224 212 136  224 212 136  230 222 149
230 222 149  230 222 149  230 222 149  230 222 149  230 222 149  230 222 149
230 222 149  238 210 89  216 180 3  165 137 58  0 0 0  0 0 0
0 0 0  0 0 0  0 0 0  0 0 0  0 0 0  0 0 0
0 0 0  0 0 0
0 0 0  0 0 0  0 0 0  0 0 0  0 0 0  0 0 0
0 0 0  0 0 0  0 0 0  18 13 0  204 171 0  216 180 3
216 180 3  216 180 3  226 214 124  226 214 124  226 214 124  226 214 124
226 214 124  226 214 124  226 214 124  226 214 124  226 214 124  222 208 114
222 208 114  222 208 114  222 208 114  222 206 114  222 206 114  218 204 112
213 190 54  204 171 0  204 171 0  204 171 0  204 171 0  200 161 16
200 161 16  176 146 52  111 111 109  121 119 113  121 119 113  111 111 109
200 161 16  200 161 16  200 161 16  204 171 0  204 171 0  204 171 0
204 171 0  204 171 0  204 171 0  217 198 80  222 206 114  222 208 114
222 208 114  222 208 114  222 208 114  226 214 124  226 214 124  226 214 124
226 214 124  226 214 124  226 214 124  226 214 124  226 214 124  226 214 124
226 214 124  238 210 89  216 180 3  200 161 16  3 3 2  0 0 0
0 0 0  0 0 0  0 0 0  0 0 0  0 0 0  0 0 0
0 0 0  0 0 0
0 0 0  0 0 0  0 0 0  0 0 0  0 0 0  0 0 0
0 0 0  0 0 0  0 0 0  40 34 24  204 171 0  216 180 3
216 180 3  216 180 3  238 210 89  238 210 89  224 208 102  224 208 102
224 208 102  224 208 102  224 208 102  224 208 102  224 208 102  224 208 102
224 208 102  224 208 102  224 208 102  224 208 102  217 198 80  217 198 80
205 175 9  204 171 0  204 171 0  204 171 0  204 171 0  200 161 16
200 161 16  200 161 16  119 116 105  111 111 109  111 111 109  121 113 95
200 161 16  200 161 16  200 161 16  204 171 0  204 171 0  204 171 0
204 171 0  204 171 0  204 171 0  213 190 54  224 208 102  224 208 102
224 208 102  224 208 102  224 208 102  224 208 102  224 208 102  224 208 102
224 208 102  224 208 102  224 208 102  224 208 102  238 210 89  238 210 89
238 210 89  228 204 49  216 180 3  204 171 0  29 27 19  0 0 0
0 0 0  0 0 0  0 0 0  0 0 0  0 0 0  0 0 0
0 0 0  0 0 0
0 0 0  0 0 0  0 0 0  0 0 0  0 0 0  0 0 0
0 0 0  0 0 0  0 0 0  40 34 24  204 171 0  216 180 3
216 180 3  216 180 3  216 188 36  238 210 89  223 202 70  223 202 70
223 202 70  223 202 70  223 202 70  223 202 70  223 202 70  223 202 70
223 202 70  223 202 70  217 198 80  217 198 80  217 198 80  213 190 54
204 171 0  204 171 0  204 171 0  204 171 0  204 171 0  200 161 16
200 161 16  200 161 16  121 119 113  121 119 113  121 119 113  121 113 95
200 161 16  200 161 16  200 161 16  204 171 0  204 171 0  204 171 0
204 171 0  204 171 0  204 171 0  205 175 9  223 202 70  217 198 80
223 202 70  223 202 70  223 202 70  223 202 70  223 202 70  223 202 70
223 202 70  223 202 70  223 202 70  223 202 70  238 210 89  238 210 89
223 202 70  216 180 3  216 180 3  204 171 0  29 27 19  0 0 0
0 0 0  0 0 0  0 0 0  0 0 0  0 0 0  0 0 0
0 0 0  0 0 0
0 0 0  0 0 0  0 0 0  0 0 0  0 0 0  0 0 0
0 0 0  0 0 0  0 0 0  20 13 1  204 171 0  216 180 3
216 180 3  216 180 3  216 180 3  216 188 36  223 201 57  223 201 57
223 201 57  220 198 56  220 198 56  220 198 56  220 198 56  213 190 54
213 190 54  213 190 54  213 190 54  213 190 54  213 190 54  205 175 9
204 171 0  204 171 0  204 171 0  204 171 0  200 161 16  200 161 16
200 161 16  176 146 52  111 111 109  111 111 109  111 111 109  110 107 97
200 161 16  200 161 16  200 161 16  200 161 16  204 171 0  204 171 0
204 171 0  204 171 0  204 171 0  204 171 0  205 175 9  213 190 54
213 190 54  213 190 54  213 190 54  220 198 56  220 198 56  220 198 56
220 198 56  223 201 57  223 201 57  223 201 57  223 201 57  223 201 57
218 186 35  216 180 3  204 171 0  204 171 0  18 13 0  0 0 0
0 0 0  0 0 0  0 0 0  0 0 0  0 0 0  0 0 0
0 0 0  0 0 0
0 0 0  0 0 0  0 0 0  0 0 0  0 0 0  0 0 0
0 0 0  0 0 0  0 0 0  0 0 0  165 137 58  204 171 0
216 180 3  216 180 3  216 180 3  216 180 3  212 178 8  218 186 35
218 186 35  218 186 35  218 186 35  218 186 35  218 186 35  218 186 35
203 169 38  203 169 38  203 169 38  198 161 23  204 171 0  204 171 0
204 171 0  204 171 0  200 161 16  200 161 16  200 161 16  200 161 16
200 161 16  52 48 40  16 16 14  21 20 20  21 20 20  16 16 14
52 48 40  200 161 16  200 161 16  200 161 16  200 161 16  200 161 16
204 171 0  204 171 0  204 171 0  204 171 0  204 171 0  205 175 9
203 169 38  203 169 38  218 186 35  218 186 35  218 186 35  218 186 35
218 186 35  218 186 35  218 186 35  218 186 35  218 186 35  212 178 8
216 180 3  204 171 0  204 171 0  61 57 46  0 0 0  0 0 0
0 0 0  0 0 0  0 0 0  0 0 0  0 0 0  0 0 0
0 0 0  0 0 0
0 0 0  0 0 0  0 0 0  0 0 0  0 0 0  0 0 0
0 0 0  0 0 0  0 0 0  0 0 0  3 3 2  61 57 46
200 161 16  204 171 0  204 171 0  204 171 0  204 171 0  204 171 0
200 161 16  200 161 16  200 161 16  200 161 16  200 161 16  200 161 16
200 161 16  200 161 16  200 161 16  200 161 16  200 161 16  200 161 16
200 161 16  200 161 16  200 161 16  200 161 16  200 161 16  165 137 58
40 34 24  0 0 0  0 0 0  0 0 0  0 0 0  0 0 0
0 0 0  40 34 24  165 137 58  200 161 16  200 161 16  200 161 16
200 161 16  200 161 16  200 161 16  200 161 16  200 161 16  200 161 16
200 161 16  200 161 16  200 161 16  200 161 16  200 161 16  200 161 16
200 161 16  200 161 16  200 161 16  204 171 0  204 171 0  204 171 0
204 171 0  200 161 16  61 57 46  2 1 1  0 0 0  0 0 0
0 0 0  0 0 0  0 0 0  0 0 0  0 0 0  0 0 0
0 0 0  0 0 0
0 0 0  0 0 0  0 0 0  0 0 0  0 0 0  0 0 0
0 0 0  0 0 0  0 0 0  0 0 0  0 0 0  0 0 0
3 3 2  18 13 0  18 13 0  18 13 0  18 13 0  18 13 0
18 13 0  18 13 0  18 13 0  18 13 0  18 13 0  18 13 0
18 13 0  18 13 0  18 13 0  18 13 0  18 13 0  18 13 0
18 13 0  18 13 0  18 13 0  18 13 0  18 13 0  1 1 1
0 0 0  0 0 0  0 0 0  0 0 0  0 0 0  0 0 0
0 0 0  0 0 0  1 1 1  18 13 0  18 13 0  18 13 0
18 13 0  18 13 0  18 13 0  18 13 0  18 13 0  18 13 0
18 13 0  18 13 0  18 13 0  18 13 0  18 13 0  18 13 0
18 13 0  18 13 0  18 13 0  18 13 0  18 13 0  18 13 0
18 13 0  2 1 1  0 0 0  0 0 0  0 0 0  0 0 0
0 0 0  0 0 0  0 0 0  0 0 0  0 0 0  0 0 0
0 0 0  0 0 0
0 0 0  0 0 0  0 0 0  0 0 0  0 0 0  0 0 0
0 0 0  0 0 0  0 0 0  0 0 0  0 0 0  0 0 0
0 0 0  0 0 0  0 0 0  0 0 0  0 0 0  0 0 0
0 0 0  0 0 0  0 0 0  0 0 0  0 0 0  0 0 0
0 0 0  0 0 0  0 0 0  0 0 0  0 0 0  0 0 0
0 0 0  0 0 0  0 0 0  0 0 0  0 0 0  0 0 0
0 0 0  0 0 0  0 0 0  0 0 0  0 0 0  0 0 0
0 0 0  0 0 0  0 0 0  0 0 0  0 0 0  0 0 0
0 0 0  0 0 0  0 0 0  0 0 0  0 0 0  0 0 0
0 0 0  0 0 0  0 0 0  0 0 0  0 0 0  0 0 0
0 0 0  0 0 0  0 0 0  0 0 0  0 0 0  0 0 0
0 0 0  0 0 0  0 0 0  0 0 0  0 0 0  0 0 0
0 0 0  0 0 0  0 0 0  0 0 0  0 0 0  0 0 0
0 0 0  0 0 0
0 0 0  0 0 0  0 0 0  0 0 0  0 0 0  0 0 0
0 0 0  0 0 0  0 0 0  0 0 0  0 0 0  0 0 0
0 0 0  0 0 0  0 0 0  0 0 0  0 0 0  0 0 0
0 0 0  0 0 0  0 0 0  0 0 0  0 0 0  0 0 0
0 0 0  0 0 0  0 0 0  0 0 0  0 0 0  0 0 0
0 0 0  0 0 0  0 0 0  0 0 0  0 0 0  0 0 0
0 0 0  0 0 0  0 0 0  0 0 0  0 0 0  0 0 0
0 0 0  0 0 0  0 0 0  0 0 0  0 0 0  0 0 0
0 0 0  0 0 0  0 0 0  0 0 0  0 0 0  0 0 0
0 0 0  0 0 0  0 0 0  0 0 0  0 0 0  0 0 0
0 0 0  0 0 0  0 0 0  0 0 0  0 0 0  0 0 0
0 0 0  0 0 0  0 0 0  0 0 0  0 0 0  0 0 0
0 0 0  0 0 0  0 0 0  0 0 0  0 0 0  0 0 0
0 0 0  0 0 0
